X: 41113
T: Trip To Sligo, The
R: jig
M: 6/8
K: Aminor
A2e ece|dBg dBG|A2e ece|dcB Aga|
bag agf|efe dBG|ABc dfe|1 dcB A2G:|2 dcB Agf||
|:ecA AGA|cde fed|ecA AGA|cde ged|
eaa gag|~c3 BAG|ABc dfe|1 dcB Agf:|2 dcB A2G||

